assets/icons/24px/stroke/photo-and-video-24px.svg

<svg width="24" height="24" viewBox="0 0 24 24" fill="none" xmlns="http://www.w3.org/2000/svg">
<path fill-rule="evenodd" clip-rule="evenodd" d="M10.5481 4H13.4519C13.5185 3.99999 13.5768 3.99998 13.6342 4.00216C14.5404 4.03653 15.3825 4.47901 15.9249 5.20586C15.9592 5.25186 15.9922 5.29988 16.03 5.35469L16.0378 5.36609C16.0877 5.43854 16.098 5.45311 16.1066 5.46472C16.2874 5.707 16.5681 5.85449 16.8702 5.86595C16.8847 5.8665 16.9025 5.86667 16.9905 5.86667L17.6729 5.86667C18.2762 5.86665 18.7966 5.86662 19.2231 5.90636C19.6744 5.94841 20.1207 6.04158 20.5386 6.29125C20.9646 6.54578 21.3209 6.90204 21.5754 7.32809C21.8251 7.74601 21.9183 8.19227 21.9603 8.64357C22 9.0701 22 9.59045 22 10.1937L22 15.0658C22.0001 15.9523 22.0001 16.7161 21.9179 17.3278C21.8297 17.9833 21.631 18.6117 21.1213 19.1213C20.6117 19.631 19.9833 19.8297 19.3278 19.9179C18.7161 20.0001 17.9523 20.0001 17.0658 20H6.93417C6.04769 20.0001 5.28387 20.0001 4.67221 19.9179C4.0167 19.8297 3.38835 19.631 2.87868 19.1213C2.36902 18.6117 2.17028 17.9833 2.08215 17.3278C1.99991 16.7161 1.99995 15.9523 2 15.0658L2 10.1937C1.99998 9.59045 1.99996 9.0701 2.0397 8.64357C2.08175 8.19227 2.17492 7.74601 2.42459 7.32809C2.67912 6.90204 3.03537 6.54578 3.46143 6.29125C3.87934 6.04158 4.3256 5.94841 4.7769 5.90636C5.20343 5.86662 5.72378 5.86665 6.32708 5.86667L7.00956 5.86667C7.09753 5.86667 7.11533 5.8665 7.12981 5.86595C7.43189 5.85449 7.71258 5.707 7.89337 5.46472C7.90203 5.45311 7.91227 5.43854 7.96217 5.36609L7.96999 5.35474C8.00775 5.2999 8.04081 5.25187 8.07515 5.20586C8.61752 4.47901 9.45958 4.03653 10.3658 4.00216C10.4232 3.99998 10.4815 3.99999 10.5481 4ZM10.5619 6C10.4739 6 10.4561 6.00017 10.4416 6.00072C10.1395 6.01218 9.85886 6.15967 9.67807 6.40196C9.66941 6.41357 9.65917 6.42813 9.60927 6.50058L9.60145 6.51193C9.56369 6.56677 9.53062 6.6148 9.49629 6.66081C8.95392 7.38766 8.11186 7.83014 7.20561 7.86451C7.14824 7.86669 7.08994 7.86668 7.02337 7.86667C7.01881 7.86667 7.0142 7.86667 7.00956 7.86667H6.37131C5.71129 7.86667 5.28505 7.86768 4.96244 7.89774C4.65421 7.92646 4.54303 7.97481 4.48715 8.0082C4.34513 8.09304 4.22638 8.21179 4.14153 8.35381C4.10814 8.4097 4.05979 8.52088 4.03107 8.8291C4.00102 9.15171 4 9.57795 4 10.238V15C4 15.9711 4.00213 16.5988 4.06431 17.0613C4.12263 17.495 4.21677 17.631 4.2929 17.7071C4.36902 17.7832 4.50497 17.8774 4.93871 17.9357C5.40121 17.9979 6.02893 18 7 18H17C17.9711 18 18.5988 17.9979 19.0613 17.9357C19.495 17.8774 19.631 17.7832 19.7071 17.7071C19.7832 17.631 19.8774 17.495 19.9357 17.0613C19.9979 16.5988 20 15.9711 20 15V10.238C20 9.57795 19.999 9.15171 19.9689 8.8291C19.9402 8.52088 19.8919 8.4097 19.8585 8.35381C19.7736 8.21179 19.6549 8.09304 19.5129 8.0082C19.457 7.97481 19.3458 7.92646 19.0376 7.89774C18.715 7.86768 18.2887 7.86667 17.6287 7.86667L16.9766 7.86667C16.9101 7.86668 16.8518 7.86669 16.7944 7.86451C15.8882 7.83014 15.0461 7.38766 14.5037 6.66081C14.4694 6.61479 14.4363 6.56675 14.3985 6.51189L14.3907 6.50058C14.3408 6.42813 14.3306 6.41357 14.3219 6.40196C14.1411 6.15967 13.8605 6.01218 13.5584 6.00072C13.5439 6.00017 13.5261 6 13.4381 6H10.5619Z" fill="white"/>
<path fill-rule="evenodd" clip-rule="evenodd" d="M12 10.4286C10.8166 10.4286 9.85718 11.388 9.85718 12.5714C9.85718 13.7549 10.8166 14.7143 12 14.7143C13.1835 14.7143 14.1429 13.7549 14.1429 12.5714C14.1429 11.388 13.1835 10.4286 12 10.4286ZM7.85718 12.5714C7.85718 10.2834 9.712 8.42857 12 8.42857C14.2881 8.42857 16.1429 10.2834 16.1429 12.5714C16.1429 14.8595 14.2881 16.7143 12 16.7143C9.712 16.7143 7.85718 14.8595 7.85718 12.5714Z" fill="white"/>
<path d="M16.5714 10C16.5714 9.68441 16.8272 9.42857 17.1428 9.42857V9.42857C17.4584 9.42857 17.7143 9.68441 17.7143 10V10C17.7143 10.3156 17.4584 10.5714 17.1428 10.5714V10.5714C16.8272 10.5714 16.5714 10.3156 16.5714 10V10Z" fill="white"/>
</svg>

<svg width="24" height="24" fill="none" xmlns="http://www.w3.org/2000/svg"><path fill-rule="evenodd" clip-rule="evenodd" d="M10.548 4h2.904a3 3 0 0 1 2.473 1.206c.034.046.067.094.105.149l.008.011.069.099a1 1 0 0 0 .763.4c.015.002.032.002.12.002h.683c.603 0 1.124 0 1.55.04.451.041.898.135 1.316.384a3 3 0 0 1 1.036 1.037c.25.418.343.864.385 1.316.04.426.04.946.04 1.55v4.872c0 .886 0 1.65-.082 2.262-.088.655-.287 1.284-.797 1.793-.51.51-1.138.709-1.793.797-.612.082-1.376.082-2.262.082H6.934c-.886 0-1.65 0-2.262-.082-.655-.088-1.284-.287-1.793-.797-.51-.51-.709-1.138-.797-1.793C2 16.716 2 15.952 2 15.066v-4.872c0-.604 0-1.124.04-1.55.042-.452.135-.898.385-1.316A3 3 0 0 1 3.46 6.291c.418-.25.865-.343 1.316-.385.426-.04.947-.04 1.55-.04h.803a1 1 0 0 0 .763-.401c.009-.012.02-.026.07-.099l.007-.011c.038-.055.07-.103.105-.15a3 3 0 0 1 2.29-1.203C10.424 4 10.483 4 10.549 4zm.014 2h-.12a1 1 0 0 0-.764.402 3.857 3.857 0 0 0-.069.099l-.008.01a3 3 0 0 1-2.396 1.353c-.057.003-.115.003-.182.003h-.652c-.66 0-1.086 0-1.409.03-.308.03-.419.078-.475.111a1 1 0 0 0-.345.346c-.034.056-.082.167-.11.475C4 9.152 4 9.578 4 10.238V15c0 .971.002 1.599.064 2.061.059.434.153.57.229.646.076.076.212.17.646.229C5.4 17.998 6.029 18 7 18h10c.971 0 1.599-.002 2.061-.064.434-.059.57-.153.646-.229.076-.076.17-.212.229-.646.062-.462.064-1.09.064-2.061v-4.762c0-.66-.001-1.086-.031-1.409-.029-.308-.077-.42-.11-.475a1 1 0 0 0-.346-.346c-.056-.033-.167-.082-.475-.11-.323-.03-.75-.031-1.41-.031h-.651c-.067 0-.125 0-.183-.002a3 3 0 0 1-2.29-1.204c-.035-.046-.068-.094-.105-.15l-.008-.01a3.733 3.733 0 0 0-.07-.099 1 1 0 0 0-.763-.401L13.438 6h-2.876z" fill="#fff"/><path fill-rule="evenodd" clip-rule="evenodd" d="M12 10.429a2.143 2.143 0 1 0 0 4.285 2.143 2.143 0 0 0 0-4.285zM7.857 12.57a4.143 4.143 0 1 1 8.286 0 4.143 4.143 0 0 1-8.286 0z" fill="#fff"/><path d="M16.571 10a.571.571 0 1 1 1.143 0 .571.571 0 1 1-1.143 0z" fill="#fff"/></svg>
